ShootInLogApp/LUTs/Scenery.cube
TITLE "Generated by Resolve"
LUT_3D_SIZE 33
0.000610361 0 0
0.000610361 0 0
0.000610361 0 0
0.000610361 0 0
0.000610361 0 0
0.000610361 0 0
0.0184024 0 0
0.0543526 0 0
0.11696 0 0
0.193591 0 0
0.29192 0 0
0.417792 0 0
0.532662 0 0
0.646967 0 0
0.760876 0 0
0.872145 0 0
0.976974 0 0
1 0 0
1 0 0
1 0 0
1 0 0
1 0 0
1 0 0
1 0 0
1 0 0
1 0 0
1 0 0.222385
1 0 0.345342
1 0 0.45304
1 0 0.550408
1 0 0.635355
1 0.171099 0.702159
1 0.327321 0.755261
0.000610361 0 0
0.000610361 0 0
0.000610361 0 0
0.000610361 0 0
0.000610361 0 0
0.000610361 0 0
0.0401312 0 0
0.084596 0 0
0.148241 0 0
0.223026 0 0
0.323049 0 0
0.44239 0 0
0.550805 0 0
0.66128 0 0
0.771832 0 0
0.880339 0 0
0.982864 0 0
1 0 0
1 0 0
1 0 0
1 0 0
1 0 0
1 0 0
1 0 0
1 0 0
1 0 0
1 0 0.126848
1 0 0.297658
1 0 0.422827
1 0 0.528405
1 0.0688487 0.616464
1 0.252079 0.687465
1 0.370947 0.744915
0.000610361 0 0
0.000610361 0 0
0.000610361 0 0
0.000610361 0 0
0.000610361 0 0
0.00798047 0 0
0.0485847 0 0
0.0988632 0 0
0.160739 0 0
0.235523 0 0
0.33608 0 0
0.452018 0 0
0.55816 0 0
0.667079 0 0
0.776303 0 0
0.883711 0 0
0.98526 0 0
1 0 0
1 0 0
1 0 0
1 0 0
1 0 0
1 0 0
1 0 0
1 0 0
1 0 0
1 0 0.0889754
1 0 0.280278
1 0 0.411215
1 0 0.519799
1 0.131106 0.607996
1 0.278996 0.681743
1 0.387182 0.740826
0.000610361 0 0
0.000610361 0 0
0.000610361 0 0
0.000610361 0 0
0.000610361 0 0
0.0178531 0 0
0.0568551 0 0
0.109407 0 0
0.170199 0 0
0.245136 0 0
0.34612 0 0
0.459174 0 0
0.563684 0 0
0.671473 0 0
0.779706 0 0
0.886229 0 0
0.987091 0 0
1 0 0
1 0 0
1 0 0
1 0 0
1 0 0
1 0 0
1 0 0
1 0 0
1 0 0
1 0 0.0583047
1 0 0.267628
1 0 0.402579
1 0 0.513405
1 0.167651 0.601953
1 0.297932 0.677501
1 0.398993 0.737713
0.000610361 0 0
0.000610361 0 0
0.000610361 0 0
0.000610361 0 0
0.000610361 0 0
0.0244297 0 0
0.0644846 0 0
0.118105 0 0
0.178103 0 0
0.253285 0 0
0.35462 0 0
0.46508 0 0
0.568338 0 0
0.675135 0 0
0.782528 0 0
0.888365 0 0
0.988617 0 0
1 0 0
1 0 0
1 0 0
1 0 0
1 0 0
1 0 0
1 0 0
1 0 0
1 0 0
1 0 0.0341192
1 0 0.257176
1 0 0.395438
1 0.0195163 0.507073
1 0.194186 0.597101
1 0.312871 0.673991
1 0.408606 0.73518
0.000610361 0 0
0.000610361 0 0
0.000610361 0 0
0.000610361 0 0
0.000610361 0 0
0.0297551 0 0
0.0716411 0 0
0.125643 0 0
0.185016 0 0
0.260471 0 0
0.362097 0 0
0.470176 0 0
0.572381 0 0
0.67834 0 0
0.785031 0 0
0.887694 0 0
0.983703 0 0
1 0 0
1 0 0
1 0 0
1 0 0
1 0 0
1 0 0
1 0 0
1 0 0
1 0 0
1 0 0.0152895
1 0 0.24799
1 0 0.389303
1 0.065156 0.500999
1 0.215198 0.59292
1 0.325414 0.670954
1 0.416815 0.732952
0.000701915 0.00575265 0
0.00077821 0.00984207 0
0.000808728 0.0114595 0
0.000823987 0.0126955 0
0.000839246 0.0137331 0
0.0155947 0.00962844 0
0.0635843 0.00248722 0
0.119097 0 0
0.179202 0 0
0.254612 0 0
0.356237 0 0
0.461814 0 0
0.56228 0 0
0.665461 0 0
0.768612 0 0
0.869856 0 0
0.965682 0 0
1 0 0
1 0 0
1 0 0
1 0 0
1 0 0
1 0 0
1 0 0
1 0 0
1 0 0
1 0 0.0011902
1 0 0.239612
1 0 0.383703
1 0.102419 0.495583
1 0.232624 0.589181
1 0.336202 0.668223
1 0.424002 0.730953
0.00108339 0.0276341 0
0.00115969 0.0322728 0
0.0011902 0.0343023 0
0.00122072 0.0359045 0
0.00123598 0.0372778 0
0.00120546 0.0346685 0
0.0419165 0.0276036 0
0.100862 0.0196994 0
0.164843 0.0102235 0
0.241428 0 0
0.342702 0 0
0.445319 0 0
0.543648 0 0
0.645701 0 0
0.748775 0 0
0.849897 0 0
0.94847 0 0
1 0 0
1 0 0
1 0 0
1 0 0
1 0 0
1 0 0
1 0 0
1 0 0
1 0 0
1 0 0
1 0 0.231876
1 0 0.378653
1 0.131075 0.490867
1 0.247944 0.585824
1 0.345983 0.665721
1 0.430564 0.729107
0.00173953 0.0658885 0
0.00184634 0.0722667 0
0.00189212 0.0749523 0
0.00192264 0.0770428 0
0.00195315 0.0788128 0
0.00189212 0.0756847 0
0.00564584 0.0696422 0
0.0656291 0.061326 0
0.13872 0.0504921 0
0.219211 0.0349737 0
0.322637 0.00988785 0
0.424094 0 0
0.522011 0 0
0.624109 0 0
0.726955 0 0
0.831281 0 0
0.93196 0 0
1 0 0
1 0 0
1 0 0
1 0 0
1 0 0
1 0 0
1 0 0
1 0 0
1 0 0
1 0 0
1 0 0.222583
1 0.0208438 0.371511
1 0.160418 0.48539
1 0.26508 0.581827
1 0.357229 0.662776
1 0.438239 0.726925
0.00271611 0.123766 0
0.00282292 0.12987 0
0.0028687 0.132372 0
0.00289921 0.134279 0
0.00292973 0.135912 0
0.0028687 0.132509 0
0.0027924 0.12752 0
0.0163577 0.121752 0
0.0954299 0.112551 0
0.18764 0.0978256 0
0.294926 0.072694 0
0.39646 0.0431983 0
0.494545 0.0102693 0
0.597681 0 0
0.702647 0 0
0.808316 0 0
0.910811 0 0
1 0 0
1 0 0
1 0 0
1 0 0
1 0 0
1 0 0
1 0 0
1 0 0
1 0 0
1 0 0
1 0 0.210605
1 0.0820935 0.361746
1 0.193103 0.47863
1 0.285618 0.576837
1 0.37113 0.659052
1 0.447807 0.724132
0.00389105 0.192264 0
0.00399786 0.198077 0
0.00402838 0.200473 0
0.0040589 0.202304 0
0.00408942 0.203479 0
0.00402838 0.200061 0
0.00396735 0.196139 0
0.00389105 0.192355 0
0.0188449 0.18674 0
0.133639 0.175799 0
0.250965 0.158602 0
0.354665 0.139132 0
0.455497 0.11516 0
0.559945 0.0822919 0
0.666789 0.0383459 0
0.774792 0 0
0.879484 0 0
0.977676 0 0
1 0 0
1 0 0
1 0 0
1 0 0
1 0 0
1 0 0
1 0 0
1 0 0
1 0 0
1 0.0389563 0.19263
1 0.142626 0.34995
1 0.229206 0.470222
1 0.309972 0.570565
1 0.388052 0.654337
1 0.459693 0.720653
0.00531014 0.274876 0
0.00538643 0.27953 0
0.00541695 0.281407 0
0.00544747 0.282841 0
0.00544747 0.282994 0
0.00538643 0.27953 0
0.0053254 0.276158 0
0.00527962 0.273548 0
0.00521859 0.269642 0
0.0305638 0.262333 0
0.184955 0.248875 0
0.296986 0.234546 0
0.403662 0.217853 0
0.511849 0.197177 0
0.621881 0.171008 0
0.733303 0.136919 0
0.842802 0.0919051 0
0.94638 0.0342412 0
1 0 0
1 0 0
1 0 0
1 0 0
1 0 0
1 0 0
1 0 0
1 0 0
1 0.0553292 0
1 0.130922 0.167407
1 0.200412 0.335668
1 0.269001 0.459876
1 0.33843 0.562768
1 0.408469 0.648432
1 0.47425 0.716213
0.0065919 0.35024 0
0.00665293 0.353643 0
0.00668345 0.355032 0
0.00669871 0.3561 0
0.00666819 0.354681 0
0.00660716 0.351095 0
0.00657664 0.348974 0
0.00654612 0.346914 0
0.00648508 0.343526 0
0.00637827 0.337255 0
0.103593 0.326513 0
0.235904 0.314321 0
0.351965 0.300374 0
0.465263 0.283909 0
0.578851 0.264118 0
0.693202 0.239963 0
0.805615 0.211124 0
0.912383 0.177951 0
1 0.142077 0
1 0.107332 0
1 0.0793317 0
1 0.0670176 0
1 0.0658427 0
1 0.0759289 0
1 0.0929427 0
1 0.123171 0
1 0.163134 0
1 0.208469 0.13576
1 0.258228 0.31809
1 0.312673 0.447074
1 0.371237 0.553033
1 0.4327 0.641047
1 0.49192 0.710658
0.00791943 0.427527 0
0.00796521 0.430365 0
0.00798047 0.431495 0
0.00799573 0.432364 0
0.00793469 0.428885 0
0.00790417 0.426612 0
0.00787366 0.425086 0
0.00784314 0.423224 0
0.0077821 0.419883 0
0.00767529 0.413703 0
0.00753796 0.405463 0
0.154894 0.394766 0
0.289265 0.382437 0
0.411673 0.368383 0
0.530785 0.351904 0
0.649058 0.332418 0
0.76492 0.309926 0
0.875212 0.2851 0
0.976257 0.25948 0
1 0.235966 0
1 0.218189 0
1 0.209354 0
1 0.203479 0
1 0.205432 0
1 0.210742 0
1 0.226261 0
1 0.250507 0
1 0.281224 0.0940414
1 0.317769 0.296529
1 0.360418 0.431495
1 0.408621 0.541131
1 0.461173 0.631922
1 0.513146 0.703777
0.009308 0.508919 0
0.00935378 0.511193 0
0.00936904 0.512123 0
0.00933852 0.510872 0
0.00929274 0.507759 0
0.00926223 0.50634 0
0.00924697 0.504952 0
0.00920119 0.502846 0
0.00914015 0.499077 0
0.00903334 0.492821 0
0.00891127 0.485512 0
0.00877394 0.477378 0
0.206744 0.465705 0
0.347036 0.453025 0
0.47541 0.438437 0
0.599451 0.421546 0
0.719707 0.402487 0
0.834119 0.381888 0
0.939391 0.360922 0
1 0.341543 0
1 0.326833 0
1 0.318349 0
1 0.309545 0
1 0.307836 0
1 0.307927 0
1 0.31635 0
1 0.331853 0
1 0.35317 0.0351415
1 0.379568 0.26981
1 0.412146 0.412543
1 0.450568 0.52665
1 0.494026 0.620737
1 0.53814 0.695232
0.0107424 0.592737 0
0.0107729 0.594568 0
0.0107881 0.595331 0
0.0107271 0.591928 0
0.0106966 0.590265 0
0.0106813 0.589044 0
0.0106508 0.587091 0
0.010605 0.584268 0
0.0105287 0.579736 0
0.0104219 0.573739 0
0.0102998 0.567224 0
0.0101778 0.559762 0
0.0660105 0.550515 0
0.261753 0.538582 0
0.407736 0.525383 0
0.541238 0.510414 0
0.667857 0.493736 0
0.787366 0.475807 0
0.897353 0.457542 0
0.994995 0.440452 0
1 0.426764 0
1 0.416953 0
1 0.406699 0
1 0.40209 0
1 0.398672 0
1 0.402243 0
1 0.411521 0
1 0.425818 0
1 0.443931 0.236637
1 0.467658 0.389761
1 0.496925 0.509239
1 0.531334 0.607233
1 0.567224 0.684871
0.0122072 0.678264 0
0.0122377 0.679667 0
0.012192 0.677592 0
0.0121462 0.67509 0
0.0121309 0.673716 0
0.0120851 0.671565 0
0.0120394 0.668467 0
0.0119783 0.664714 0
0.011902 0.660075 0
0.0118105 0.654932 0
0.0117037 0.649226 0
0.0115969 0.642588 0
0.0114595 0.635035 0
0.13637 0.62501 0
0.322759 0.612772 0
0.47245 0.599237 0
0.60824 0.584253 0
0.734249 0.568154 0
0.849683 0.551705 0
0.952377 0.536034 0
1 0.522667 0
1 0.510445 0
1 0.49987 0
1 0.492515 0
1 0.486641 0
1 0.486381 0
1 0.49073 0
1 0.499062 0
1 0.510506 0.194491
1 0.526436 0.362631
1 0.547219 0.488624
1 0.572824 0.591134
1 0.600351 0.672389
0.0136416 0.762081 0
0.0136568 0.762936 0
0.0135805 0.758267 0
0.01355 0.756481 0
0.0135042 0.753933 0
0.0134432 0.750454 0
0.0133822 0.746578 0
0.0133211 0.743099 0
0.0132448 0.739391 0
0.0131838 0.73518 0
0.0130922 0.73022 0
0.0130007 0.724453 0
0.0128786 0.717861 0
0.0127565 0.710231 0
0.20882 0.699046 0
0.390173 0.686595 0
0.540047 0.672953 0
0.674571 0.658305 0
0.796399 0.643198 0
0.904616 0.62855 0
0.997559 0.615091 0
1 0.600717 0
1 0.589807 0
1 0.579797 0
1 0.572396 0
1 0.5691 0
1 0.569375 0
1 0.572763 0
1 0.578546 0.138048
1 0.587655 0.330831
1 0.600702 0.464698
1 0.617975 0.57229
1 0.637278 0.657649
0.0149996 0.841367 0
0.0149233 0.83743 0
0.0148928 0.835355 0
0.014847 0.832242 0
0.0147707 0.828183 0
0.0147097 0.824308 0
0.0146487 0.821149 0
0.0146029 0.81854 0
0.0145571 0.81561 0
0.0144961 0.812085 0
0.0144198 0.807919 0
0.0143435 0.803037 0
0.0142367 0.797391 0
0.0141299 0.790646 0
0.0139925 0.782574 0
0.289601 0.770443 0
0.462806 0.757961 0
0.608835 0.744564 0
0.738186 0.730617 0
0.852399 0.716884 0
0.94992 0.701183 0
1 0.687175 0
1 0.675456 0
1 0.663737 0
1 0.655207 0
1 0.649531 0
1 0.64651 0
1 0.645792 0
1 0.646906 0.0632486
1 0.65005 0.294011
1 0.656291 0.437568
1 0.665995 0.550851
1 0.67747 0.640589
0.0162356 0.914229 0
0.016144 0.908309 0
0.0160678 0.904051 0
0.0159915 0.899367 0
0.0159304 0.895811 0
0.0158846 0.893065 0
0.0158389 0.89073 0
0.0158083 0.88867 0
0.0157626 0.88632 0
0.0157168 0.883452 0
0.0156558 0.880049 0
0.0155947 0.876036 0
0.0155032 0.871183 0
0.0154116 0.865354 0
0.0152895 0.858427 0
0.159884 0.848692 0
0.376837 0.837064 0
0.538643 0.824826 0
0.676036 0.811215 0
0.795514 0.796338 0
0.899275 0.781933 0
0.986618 0.768231 0
1 0.75494 0
1 0.743099 0
1 0.733639 0
1 0.726207 0
1 0.720607 0
1 0.716594 0
1 0.714031 0
1 0.712139 0.252125
1 0.712596 0.407614
1 0.715663 0.527077
1 0.720073 0.621408
0.0172885 0.975296 0
0.0171511 0.96762 0
0.0170748 0.962707 0
0.0170138 0.959518 0
0.016968 0.957031 0
0.0169375 0.95494 0
0.016907 0.953155 0
0.0168765 0.951568 0
0.016846 0.949737 0
0.0168154 0.947494 0
0.0167697 0.944778 0
0.0167086 0.941436 0
0.0166323 0.937362 0
0.016556 0.932372 0
0.0164492 0.92639 0
0.0163119 0.9187 0
0.279652 0.90695 0
0.462913 0.89485 0
0.61059 0.882048 0
0.737499 0.868711 0
0.846601 0.85507 0
0.938399 0.841138 0
1 0.827466 0
1 0.815976 0
1 0.805966 0
1 0.797391 0
1 0.789944 0
1 0.783475 0
1 0.777783 0
1 0.772213 0.205478
1 0.768017 0.375753
1 0.765545 0.50164
1 0.763882 0.600519
0.0178683 1 0
0.0178683 1 0
0.0178683 1 0
0.0178683 1 0
0.0178531 1 0
0.0178225 1 0
0.0178073 1 0
0.0177768 1 0
0.0177615 1 0
0.017731 1 0
0.0176852 0.998703 0
0.0176394 0.995804 0
0.0175784 0.992218 0
0.0175021 0.987823 0
0.0174105 0.982483 0
0.0173037 0.976074 0
0.165957 0.966857 0
0.38616 0.95581 0
0.54609 0.944106 0
0.679286 0.931533 0
0.792889 0.918196 0
0.889296 0.904921 0
0.969177 0.892378 0
1 0.880796 0
1 0.87071 0
1 0.861448 0
1 0.852842 0
1 0.844694 0
1 0.836835 0
1 0.828641 0.153002
1 0.820981 0.343572
1 0.814191 0.475715
1 0.807691 0.578714
0.0178683 1 0
0.0178683 1 0
0.0178683 1 0
0.0178683 1 0
0.0178683 1 0
0.0178683 1 0
0.0178683 1 0
0.0178683 1 0
0.0178683 1 0
0.0178683 1 0
0.0178683 1 0
0.0178683 1 0
0.0178683 1 0
0.0178683 1 0
0.0178683 1 0
0.0178683 1 0
0.0178683 1 0
0.309987 1 0
0.483375 0.9953 0
0.623102 0.983825 0
0.741695 0.971923 0
0.842268 0.959915 0
0.925917 0.948196 0
0.993759 0.937041 0
1 0.926802 0
1 0.917311 0
1 0.908125 0
1 0.899046 0
1 0.88986 0
1 0.880034 0.101793
1 0.869963 0.313252
1 0.860136 0.450675
1 0.85005 0.556878
0.0178683 1 0
0.0178683 1 0
0.0178683 1 0
0.0178683 1 0
0.0178683 1 0
0.0178683 1 0
0.0178683 1 0
0.0178683 1 0
0.0178683 1 0
0.0178683 1 0
0.0178683 1 0
0.0178683 1 0
0.0178683 1 0
0.0178683 1 0
0.0178683 1 0
0.0178683 1 0
0.0178683 1 0
0.24715 1 0
0.432288 1 0
0.575875 1 0
0.696727 1 0
0.799481 1 0
0.885695 0.994583 0
0.95639 0.98407 0
1 0.973938 0
1 0.964477 0
1 0.9552 0
1 0.945769 0
1 0.935988 0
1 0.925322 0.0595865
1 0.913909 0.287678
1 0.90219 0.428214
1 0.889769 0.536171
0.0178683 1 0
0.0178683 1 0
0.0178683 1 0
0.0178683 1 0
0.0178683 1 0
0.0178683 1 0
0.0178683 1 0
0.0178683 1 0
0.0178683 1 0
0.0178683 1 0
0.0178683 1 0
0.0178683 1 0
0.0178683 1 0
0.0178683 1 0
0.0178683 1 0
0.0178683 1 0
0.0178683 1 0
0.21268 1 0
0.398276 1 0
0.54052 1 0
0.660487 1 0
0.763302 1 0
0.850446 1 0
0.922759 0.999985 0
0.981216 0.99939 0
1 0.998947 0
1 0.994034 0
1 0.984726 0
1 0.974868 0
1 0.964004 0.0389563
1 0.952056 0.270298
1 0.939452 0.410346
1 0.925811 0.517906
0.0178683 1 0
0.0178683 1 0
0.0178683 1 0
0.0178683 1 0
0.0178683 1 0
0.0178683 1 0
0.0178683 1 0
0.0178683 1 0
0.0178683 1 0
0.0178683 1 0
0.0178683 1 0
0.0178683 1 0
0.0178683 1 0
0.0178683 1 0
0.0178683 1 0
0.0178683 1 0
0.0178683 1 0
0.215381 1 0
0.385489 1 0
0.519631 1 0
0.634607 1 0
0.73463 1 0
0.820798 1 0
0.893477 1 0
0.953185 0.99968 0
1 0.999191 0
1 0.998947 0
1 0.998962 0
1 0.998962 0
1 0.995956 0.0507973
1 0.984146 0.264469
1 0.97145 0.398962
1 0.957549 0.503487
0.0178683 1 0
0.0178683 1 0
0.0178683 1 0
0.0178683 1 0
0.0178683 1 0
0.0178683 1 0
0.0178683 1 0
0.0178683 1 0
0.0178683 1 0
0.0178683 1 0
0.0178683 1 0
0.0178683 1 0
0.0178683 1 0
0.0178683 1 0
0.0178683 1 0
0.0178683 1 0
0.0276799 1 0
0.252735 1 0
0.395087 1 0
0.514549 1 0
0.62034 1 0
0.714626 1 0
0.797574 1 0
0.869001 1 0
0.928847 0.999924 0
0.977554 0.99942 0
1 0.999039 0
1 0.998947 0
1 0.998962 0
1 0.998566 0.0940566
1 0.998138 0.272694
1 0.997818 0.395819
1 0.98468 0.494331
0.0178683 1 0
0.0178683 1 0
0.0178683 1 0
0.0178683 1 0
0.0178683 1 0
0.0178683 1 0
0.0178683 1 0
0.0178683 1 0
0.0178683 1 0
