ShootInLogApp/LUTs/Scenery.cube
TITLE "Generated by Resolve"
LUT_3D_SIZE 5
0.000610361 0 0
0.11696 0 0
0.976974 0 0
1 0 0
1 0.327321 0.755261
0.00173953 0.0658885 0
0.13872 0.0504921 0
0.93196 0 0
1 0 0
1 0.438239 0.726925
0.0122072 0.678264 0
0.011902 0.660075 0
0.60824 0.584253 0
1 0.486641 0
1 0.600351 0.672389
0.0178683 1 0
0.0178683 1 0
0.0178683 1 0
0.981216 0.99939 0
1 0.925811 0.517906
0.458503 1 0.411322
0.497414 1 0.407813
0.574533 1 0.400778
0.839887 0.999985 0.385885
1 0.997482 0.521294
0.000717174 3.0518e-05 0.0471504
0.0817121 0 0.0759594
0.967697 0 0
1 0 0.35465
1 0.314244 0.790616
0.00201419 0.0766918 0.0385443
0.0679179 0.0611887 0.0445716
0.915068 0 0
1 0 0.192645
1 0.427375 0.763729
0.012192 0.677012 0
0.0118868 0.659724 0
0.586496 0.574624 0
1 0.454063 0
1 0.591257 0.711894
0.0178683 1 0
0.0178683 1 0
0.0178683 1 0
0.976089 0.999435 0
1 0.919738 0.560525
0.450431 1 0.454704
0.490028 1 0.451209
0.568292 1 0.444129
0.836728 0.999939 0.426764
1 0.997421 0.54139
0.00277714 0.00062562 0.870802
0.0027924 0.00062562 0.876005
0.891295 0 0.765209
1 0 0.76112
1 0.29044 0.855039
0.00260929 0.000564584 0.802228
0.00259403 0.000564584 0.796979
0.824796 0 0.711498
1 0 0.654246
1 0.407172 0.831083
0.0122225 0.597009 0.562936
0.0120089 0.585412 0.557916
0.508843 0.498711 0.515267
1 0.369909 0.498726
1 0.573648 0.784863
0.018616 1 0.303639
0.0185397 1 0.271534
0.0184024 1 0.212222
0.964477 0.97789 0.180102
1 0.906905 0.641474
0.432074 1 0.539071
0.47332 1 0.535622
0.554177 1 0.528435
0.829557 0.999908 0.506767
1 0.997299 0.58439
0.00314336 0.000717174 1
0.00314336 0.000717174 1
0.560021 0.000259403 1
1 0 1
1 0.298756 0.993561
0.00314336 0.000717174 1
0.00314336 0.000717174 1
0.393393 0.000396735 1
1 0 1
1 0.396704 0.990707
0.0121004 0.526986 0.995377
0.0121614 0.530709 0.995239
0.0105287 0.434577 0.998566
1 0.238285 0.995315
1 0.543877 0.971511
0.0199893 0.994949 0.946853
0.0198062 0.985183 0.939055
0.0194247 0.96553 0.924346
0.911269 0.888243 0.877668
1 0.860609 0.878996
0.326863 1 0.815183
0.379858 1 0.812284
0.478538 1 0.806043
0.791485 1 0.778302
1 0.996765 0.765942
0.0166934 0.797147 0.985885
0.0167239 0.798184 0.985824
0.0167544 0.800809 0.985733
0.95108 0.615045 0.985504
1 0.650278 0.983017
0.0171969 0.826001 0.984863
0.0171969 0.826825 0.984817
0.0172427 0.829023 0.984741
0.932754 0.650843 0.98471
1 0.671153 0.982361
0.0180972 0.879026 0.982956
0.0180972 0.879561 0.982925
0.0181277 0.881056 0.982864
0.894621 0.717815 0.983276
1 0.713298 0.981003
0.020264 1 0.9785
0.020264 1 0.978454
0.020264 1 0.978454
0.757885 0.907118 0.976394
1 0.861738 0.975845
0.020264 1 0.978515
0.020264 1 0.978469
0.020264 1 0.978439
0.681346 1 0.972503
1 0.995834 0.968322
