ShootInLogApp/LUTs/Scenery.cube
TITLE "Generated by Resolve"
LUT_3D_SIZE 9
0.000610361 0 0
0.000610361 0 0
0.11696 0 0
0.532662 0 0
0.976974 0 0
1 0 0
1 0 0
1 0 0.45304
1 0.327321 0.755261
0.000610361 0 0
0.000610361 0 0
0.178103 0 0
0.568338 0 0
0.988617 0 0
1 0 0
1 0 0
1 0 0.395438
1 0.408606 0.73518
0.00173953 0.0658885 0
0.00195315 0.0788128 0
0.13872 0.0504921 0
0.522011 0 0
0.93196 0 0
1 0 0
1 0 0
1 0.0208438 0.371511
1 0.438239 0.726925
0.0065919 0.35024 0
0.00666819 0.354681 0
0.00648508 0.343526 0
0.351965 0.300374 0
0.805615 0.211124 0
1 0.0793317 0
1 0.0929427 0
1 0.258228 0.31809
1 0.49192 0.710658
0.0122072 0.678264 0
0.0121309 0.673716 0
0.011902 0.660075 0
0.0114595 0.635035 0
0.60824 0.584253 0
1 0.522667 0
1 0.486641 0
1 0.510506 0.194491
1 0.600351 0.672389
0.0172885 0.975296 0
0.016968 0.957031 0
0.016846 0.949737 0
0.0166323 0.937362 0
0.279652 0.90695 0
0.846601 0.85507 0
1 0.805966 0
1 0.777783 0
1 0.763882 0.600519
0.0178683 1 0
0.0178683 1 0
0.0178683 1 0
0.0178683 1 0
0.0178683 1 0
0.660487 1 0
0.981216 0.99939 0
1 0.974868 0
1 0.925811 0.517906
0.0178683 1 0
0.0178683 1 0
0.0178683 1 0
0.0178683 1 0
0.297826 1 0
0.626368 1 0
0.89189 1 0
1 0.99855 0.0961166
1 0.997543 0.495979
0.458503 1 0.411322
0.486015 1 0.408865
0.497414 1 0.407813
0.520165 1 0.405753
0.574533 1 0.400778
0.683146 1 0.391485
0.839887 0.999985 0.385885
0.981003 0.998245 0.419623
1 0.997482 0.521294
0.000610361 0 0
0.000610361 0 0
0.101137 0 0
0.52369 0 0
0.974136 0 0
1 0 0
1 0 0.234409
1 0 0.555169
1 0.318074 0.780438
0.000610361 0 0
0.000610361 0 0
0.163867 0 0
0.559991 0 0
0.985306 0 0
1 0 0
1 0 0.0953689
1 0 0.504189
1 0.400626 0.761074
0.00213626 0.0897231 0
0.00236515 0.102708 0
0.0997635 0.0790417 0
0.501228 0 0
0.919875 0 0
1 0 0
1 0 0.00581369
1 0 0.484413
1 0.430549 0.753109
0.00680552 0.362448 0
0.00689708 0.367971 0
0.00671397 0.356786 0
0.329763 0.313237 0
0.795346 0.21976 0
1 0.0489204 0
1 0.00370794 0
1 0.222919 0.438499
1 0.484733 0.737423
0.012253 0.681224 0
0.0121614 0.67602 0
0.0119478 0.66273 0
0.01149 0.636378 0
0.595544 0.582162 0
1 0.505119 0
1 0.464134 0
1 0.492088 0.341085
1 0.593957 0.700481
0.0171664 0.968353 0
0.0168612 0.950561 0
0.0167391 0.942946 0
0.0165103 0.929702 0
0.225956 0.898299 0
0.836423 0.842649 0
1 0.793835 0
1 0.766201 0.152041
1 0.758389 0.630426
0.0178683 1 0
0.0178683 1 0
0.0178683 1 0
0.0178683 1 0
0.0178683 1 0
0.64799 1 0
0.977646 0.99942 0
1 0.967987 0
1 0.921553 0.548135
0.0178683 1 0
0.0178683 1 0
0.0178683 1 0
0.0178683 1 0
0.278676 1 0
0.618082 1 0
0.888228 1 0
1 0.998306 0.202625
1 0.997482 0.520088
0.452903 1 0.442054
0.48072 1 0.439582
0.492271 1 0.438529
0.515251 1 0.436484
0.570169 1 0.431479
0.679744 1 0.421942
0.837674 0.999954 0.414801
0.979828 0.998199 0.44303
1 0.997452 0.535393
0.000717174 3.0518e-05 0.0471504
0.000793469 4.57771e-05 0.0751965
0.0817121 0 0.0759594
0.51603 0 0
0.967697 0 0
1 0 0
1 0 0.35465
1 0 0.592203
1 0.314244 0.790616
0.000823987 6.10361e-05 0.0886549
0.000900282 9.15541e-05 0.119448
0.14583 0 0.10927
0.550759 0 0.0163577
0.975937 0 0
1 0 0
1 0 0.248844
1 0 0.543297
1 0.39733 0.771557
0.00201419 0.0766918 0.0385443
0.0021973 0.0843671 0.0611582
0.0679179 0.0611887 0.0445716
0.491615 0 0
0.915068 0 0
1 0 0
1 0 0.192645
1 0 0.524392
1 0.427375 0.763729
0.00674449 0.359121 0
0.00682078 0.363287 0
0.00665293 0.353689 0
0.315938 0.308049 0
0.794202 0.206088 0
1 0.00415045 0
1 0 0.0747845
1 0.206882 0.480949
1 0.481758 0.748287
0.012192 0.677012 0
0.0121004 0.671748 0
0.0118868 0.659724 0
0.011429 0.632715 0
0.586496 0.574624 0
1 0.495033 0
1 0.454063 0
1 0.484169 0.38883
1 0.591257 0.711894
0.0170596 0.962112 0
0.0167849 0.945647 0
0.0166476 0.938323 0
0.016434 0.925414 0
0.202976 0.894347 0
0.83267 0.837827 0
1 0.788464 0
1 0.761242 0.22388
1 0.756054 0.642634
0.0178683 1 0
0.0178683 1 0
0.0178683 1 0
0.0178683 1 0
0.0178683 1 0
0.64271 1 0
0.976089 0.999435 0
1 0.964706 0.0535439
1 0.919738 0.560525
0.0178836 1 0.00277714
0.0178683 1 0
0.0178683 1 0
0.0178683 1 0
0.270222 1 0
0.614511 1 0
0.886641 1 0
1 0.99823 0.236637
1 0.997452 0.530114
0.450431 1 0.454704
0.478447 1 0.452262
0.490028 1 0.451209
0.513115 1 0.449149
0.568292 1 0.444129
0.678248 1 0.434485
0.836728 0.999939 0.426764
0.979324 0.998184 0.452811
1 0.997421 0.54139
0.00175479 0.000320439 0.458503
0.00180056 0.000335698 0.476417
0.00180056 0.000335698 0.478233
0.467689 0 0.422034
0.941619 0 0.353414
1 0 0.358648
1 0 0.522972
1 0 0.658442
1 0.306798 0.810391
0.00181582 0.000350958 0.483742
0.0018616 0.000350958 0.50074
0.0364538 0.000320439 0.495979
0.503532 0 0.438254
0.943496 0 0.366232
1 0 0.338369
1 0 0.426657
1 0 0.613184
1 0.390829 0.791943
0.00167849 0.00030518 0.430167
0.00170901 0.000320439 0.440299
0.00169375 0.00030518 0.436377
0.444114 0 0.389761
0.891859 0 0.320363
1 0 0.289219
1 0 0.386343
1 0 0.595697
1 0.421118 0.784344
0.00674449 0.317021 0.289143
0.0068513 0.320745 0.301946
0.00668345 0.311757 0.298421
0.268315 0.264332 0.280125
0.78529 0.14342 0.212573
1 0 0.184115
1 0 0.320745
1 0.172305 0.556512
1 0.475914 0.769406
0.0119783 0.654932 0.0675059
0.0119173 0.650385 0.075288
0.0117189 0.641611 0.0519417
0.0112001 0.618585 0.00297551
0.568292 0.558267 0
1 0.473762 0
1 0.43151 0.141756
1 0.468147 0.471626
1 0.585962 0.734142
0.016846 0.949737 0
0.0166018 0.935164 0
0.0164797 0.928344 0
0.0162814 0.916259 0
0.15111 0.88632 0
0.825223 0.827817 0
1 0.777157 0
1 0.751232 0.328679
1 0.7514 0.666575
0.0178683 1 0
0.0178683 1 0
0.0178683 1 0
0.0178683 1 0
0.0178683 1 0
0.631922 1 0
0.972915 0.995666 0
1 0.958267 0.198947
1 0.91606 0.584863
0.0183108 1 0.177905
0.0182803 1 0.163561
0.018265 1 0.157549
0.0182345 1 0.145632
0.251591 1 0.113542
0.606607 1 0.0638895
0.883009 1 0.0921492
1 0.998077 0.296193
1 0.997391 0.550072
0.445365 1 0.479744
0.473671 1 0.477287
0.485405 1 0.476265
0.508705 1 0.474205
0.56437 1 0.469154
0.675196 1 0.459297
0.834745 0.999924 0.450446
0.978271 0.998154 0.472358
1 0.997391 0.553628
0.00277714 0.00062562 0.870802
0.0027924 0.00062562 0.87599
0.0027924 0.00062562 0.876005
0.363241 0.000289921 0.830274
0.891295 0 0.765209
1 0 0.729702
1 0 0.76112
1 0 0.785077
1 0.29044 0.855039
0.00277714 0.000610361 0.867781
0.00277714 0.000610361 0.867826
0.00276188 0.000610361 0.861158
0.379294 0.000274662 0.813855
0.870573 0 0.745342
1 0 0.697063
1 0 0.683772
1 0 0.747616
1 0.37641 0.838071
0.00260929 0.000564584 0.802228
0.00260929 0.000564584 0.802167
0.00259403 0.000564584 0.796979
0.313191 0.000289921 0.769482
0.824796 0 0.711498
1 0 0.654887
1 0 0.654246
1 0 0.733013
1 0.407172 0.831083
0.00518807 0.166461 0.694194
0.0053254 0.174823 0.69723
0.00509651 0.161242 0.696742
0.115526 0.0859541 0.690227
0.729061 0 0.645441
1 0 0.590814
1 0 0.607217
1 0.0687572 0.702754
1 0.462638 0.817334
0.0122225 0.597009 0.562936
0.0121614 0.593057 0.562982
0.0120089 0.585412 0.557916
0.0115663 0.561715 0.540993
0.508843 0.498711 0.515267
1 0.407813 0.461509
1 0.369909 0.498726
1 0.429541 0.628702
1 0.573648 0.784863
0.017319 0.916014 0.416876
0.0170291 0.903273 0.3879
0.0168917 0.897139 0.37586
0.0166629 0.886671 0.355383
0.0161288 0.862104 0.309377
0.805417 0.799741 0.253773
1 0.746044 0.322118
1 0.726635 0.508095
1 0.740169 0.721645
0.018616 1 0.303639
0.0185702 1 0.280766
0.0185397 1 0.271534
0.0184939 1 0.25362
0.0184024 1 0.212222
0.60293 1 0.137057
0.964477 0.97789 0.180102
1 0.942275 0.394324
1 0.906905 0.641474
0.0188449 1 0.394034
0.0188144 1 0.38558
0.0188144 1 0.382116
0.0187991 1 0.375204
0.20264 1 0.356222
0.586435 1 0.324056
0.874113 0.99971 0.317601
1 0.997772 0.413718
1 0.997269 0.597772
0.432074 1 0.539071
0.46125 1 0.536645
0.47332 1 0.535622
0.4972 1 0.533532
0.554177 1 0.528435
0.667185 1 0.518105
0.829557 0.999908 0.506767
0.975509 0.998077 0.519829
1 0.997299 0.58439
0.00314336 0.000717174 1
0.00314336 0.000717174 1
0.00314336 0.000717174 1
0.156374 0.000595102 1
0.817594 4.57771e-05 1
1 0 1
1 0 0.982361
1 0 0.945434
1 0.269963 0.931609
0.00314336 0.000717174 1
0.00314336 0.000717174 1
0.00314336 0.000717174 1
0.048188 0.000686656 1
0.741222 0.000106813 1
1 0 0.971832
1 0 0.934874
1 0 0.921248
1 0.356344 0.917647
0.00314336 0.000717174 1
0.00314336 0.000717174 1
0.00314336 0.000717174 1
0.00314336 0.000717174 1
0.683314 0.00015259 1
1 0 0.952834
1 0 0.920089
1 0 0.911482
1 0.387106 0.91191
0.00311284 0.000717174 1
0.00311284 0.000717174 1
0.00311284 0.000717174 1
0.00309758 0.000717174 0.998047
0.592386 0.000213626 0.970428
1 0 0.923003
1 0 0.893278
1 0 0.892576
1 0.44239 0.900618
0.0116426 0.511284 0.918776
0.0116732 0.513039 0.91899
0.0115053 0.503563 0.917952
0.0109407 0.471473 0.910475
0.370642 0.402609 0.896178
0.968795 0.282246 0.856214
1 0.250172 0.827451
1 0.364233 0.837781
1 0.55288 0.873869
0.0173037 0.857496 0.813626
0.0170443 0.844038 0.802518
0.016907 0.83653 0.796262
0.0166629 0.824338 0.786786
0.0161746 0.798062 0.768368
0.750423 0.73254 0.737469
1 0.681758 0.706905
1 0.680095 0.74548
1 0.718898 0.820874
0.0195926 1 0.702449
0.0195621 1 0.690044
0.0195468 1 0.685115
0.0195315 1 0.675624
0.0194705 1 0.653635
0.531319 0.981643 0.605447
0.945876 0.939666 0.580056
1 0.908858 0.639246
1 0.887648 0.746853
0.0194705 1 0.653696
0.0194553 1 0.64744
0.0194553 1 0.644816
0.01944 1 0.639582
0.0448005 1 0.626429
0.541131 1 0.595605
0.853559 0.999496 0.569177
1 0.997314 0.596994
1 0.996994 0.692088
0.399466 1 0.655039
0.430854 1 0.652705
0.443778 1 0.651698
0.469322 1 0.649683
0.52961 1 0.644587
0.64802 1 0.633646
0.816983 0.999908 0.618311
0.968856 0.997925 0.61706
1 0.997116 0.652186
0.00314336 0.000717174 1
0.00314336 0.000717174 1
0.00314336 0.000717174 1
0.00314336 0.000717174 1
0.560021 0.000259403 1
1 0 1
1 0 1
1 0 1
1 0.298756 0.993561
0.00314336 0.000717174 1
0.00314336 0.000717174 1
0.00314336 0.000717174 1
0.00314336 0.000717174 1
0.440192 0.000366217 1
1 0 1
1 0 1
1 0 1
1 0.370367 0.991485
0.00314336 0.000717174 1
0.00314336 0.000717174 1
0.00314336 0.000717174 1
0.00314336 0.000717174 1
0.393393 0.000396735 1
1 0 1
1 0 1
1 0 1
1 0.396704 0.990707
0.00578317 0.155688 1
0.00595102 0.166079 1
0.00602731 0.170611 1
0.00556954 0.143282 1
0.291752 0.000488289 1
0.963119 0 1
1 0 1
1 0 1
1 0.444907 0.989273
0.0121004 0.526986 0.995377
0.0121462 0.529549 0.99527
0.0121614 0.530709 0.995239
0.0117342 0.505211 0.996124
0.0105287 0.434577 0.998566
0.858442 0.307347 0.995773
1 0.238285 0.995315
1 0.349401 0.992096
1 0.543877 0.971511
0.0171817 0.825589 0.984817
0.0171054 0.820844 0.98497
0.016968 0.81268 0.98526
0.0166476 0.794308 0.985916
0.0160983 0.761791 0.987076
0.655604 0.695262 0.979309
1 0.634012 0.952728
1 0.641337 0.937743
1 0.697826 0.934539
0.0199893 0.994949 0.946853
0.019852 0.988037 0.941283
0.0198062 0.985183 0.939055
0.0196994 0.979507 0.934691
0.0194247 0.96553 0.924346
0.432532 0.933532 0.900832
0.911269 0.888243 0.877668
1 0.865003 0.863035
1 0.860609 0.878996
0.0200198 1 0.882002
0.0200198 1 0.878004
0.0200046 1 0.87631
0.0200046 1 0.872908
0.0199741 1 0.8645
0.462715 1 0.842084
0.814664 0.99968 0.810224
1 0.990906 0.797421
1 0.974182 0.823545
0.326863 1 0.815183
0.364569 1 0.813138
0.379858 1 0.812284
0.409644 1 0.810513
0.478538 1 0.806043
0.609522 1 0.795926
0.791485 1 0.778302
0.955352 0.997833 0.763058
1 0.996765 0.765942
0.00820935 0.298695 1
0.00830091 0.304341 1
0.00834669 0.306737 1
0.00843824 0.311894 1
0.00743114 0.25301 1
0.804135 6.10361e-05 1
1 0 1
1 0.0460822 1
1 0.442344 0.989364
0.0104219 0.428809 0.99881
0.0104829 0.432349 0.998688
0.0105135 0.433921 0.998642
0.0105745 0.437217 0.99852
0.00972 0.386831 1
0.758419 0.188998 1
1 0.00663767 1
1 0.220706 0.995865
1 0.481834 0.98819
0.0111696 0.472068 0.99733
0.0112154 0.475044 0.997208
0.0112306 0.476402 0.997162
0.0112917 0.479271 0.997055
0.0104524 0.430274 0.998749
0.739452 0.259571 0.998672
1 0.127016 0.998505
1 0.267414 0.994492
1 0.497398 0.987716
0.0124361 0.546395 0.994751
0.0124666 0.548684 0.994644
0.0124819 0.549737 0.994598
0.0125277 0.551949 0.994522
0.0117189 0.504402 0.996185
0.701823 0.364553 0.996124
1 0.264088 0.994583
1 0.34403 0.992264
1 0.527413 0.986801
0.0147707 0.683589 0.989883
0.014786 0.684886 0.989822
0.0148013 0.685481 0.989792
0.0148165 0.686809 0.989746
0.0140383 0.640558 0.991394
0.611673 0.537316 0.991745
1 0.455802 0.988968
1 0.481743 0.98819
1 0.594095 0.984756
0.017792 0.860929 0.983566
0.017792 0.861387 0.983551
0.017792 0.861585 0.983536
0.0177462 0.858732 0.983627
0.0170443 0.817594 0.985092
0.436606 0.751141 0.984726
0.990097 0.682246 0.982727
1 0.670069 0.982376
1 0.70959 0.981079
0.0201419 0.999786 0.978668
0.0199741 0.98912 0.979034
0.0198978 0.984848 0.979171
0.0197757 0.977478 0.979431
0.0194858 0.960647 0.980026
0.2477 0.924834 0.979217
0.863691 0.876112 0.977646
1 0.847776 0.976379
1 0.846311 0.971481
0.020264 1 0.978439
0.020264 1 0.978424
0.020264 1 0.978424
0.020264 1 0.978424
0.020264 1 0.978424
0.34493 1 0.973922
0.773373 0.986175 0.954498
0.988586 0.963119 0.94229
1 0.951247 0.934432
0.152102 1 0.948684
0.216159 1 0.946914
0.239765 1 0.946197
0.284337 1 0.944762
0.378958 1 0.941238
0.541939 1 0.933471
0.751858 0.999756 0.919661
0.933608 0.998032 0.901823
1 0.996323 0.889189
0.0166934 0.797147 0.985885
0.0167086 0.797864 0.985855
0.0167239 0.798184 0.985824
0.0167239 0.798886 0.985809
0.0167544 0.800809 0.985733
0.01561 0.732998 0.988174
0.95108 0.615045 0.985504
1 0.598199 0.98468
1 0.650278 0.983017
0.0170443 0.817655 0.985153
0.0170596 0.818296 0.985122
0.0170596 0.818555 0.985107
0.0170748 0.819181 0.985092
0.0171054 0.820874 0.985031
0.0159609 0.754162 0.987442
0.938231 0.640528 0.984955
1 0.620645 0.983978
1 0.665049 0.982559
0.0171969 0.826001 0.984863
0.0171969 0.826566 0.984833
0.0171969 0.826825 0.984817
0.0172122 0.82742 0.984787
0.0172427 0.829023 0.984741
0.0161135 0.762707 0.987106
0.932754 0.650843 0.98471
1 0.629801 0.983688
1 0.671153 0.982361
0.0174716 0.842206 0.984298
0.0174716 0.84271 0.984253
0.0174716 0.842939 0.984237
0.0174868 0.843473 0.984222
0.0175174 0.844907 0.984161
0.0164034 0.779461 0.986511
0.921752 0.671107 0.984268
1 0.647929 0.983108
1 0.683452 0.981964
0.0180972 0.879026 0.982956
0.0180972 0.879393 0.982925
0.0180972 0.879561 0.982925
0.0181125 0.879957 0.98291
0.0181277 0.881056 0.982864
0.0170443 0.817746 0.985122
0.894621 0.717815 0.983276
1 0.690303 0.981765
1 0.713298 0.981003
0.0191958 0.943984 0.980682
0.0191958 0.944152 0.980652
0.0191958 0.944228 0.980636
0.0192111 0.944442 0.980636
0.0192111 0.945052 0.980621
0.0182193 0.886198 0.982712
0.837812 0.802869 0.980941
1 0.769863 0.979126
1 0.773648 0.978988
0.020264 1 0.9785
0.020264 1 0.978469
0.020264 1 0.978454
0.020264 1 0.978454
0.020264 1 0.978454
0.0195773 0.965927 0.979889
0.757885 0.907118 0.976394
1 0.873213 0.975464
1 0.861738 0.975845
0.020264 1 0.978469
0.020264 1 0.978454
0.020264 1 0.978454
0.020264 1 0.978454
0.020264 1 0.978454
0.020264 1 0.978454
0.70901 0.984497 0.972961
0.967269 0.959091 0.972839
1 0.944259 0.972457
0.020264 1 0.978515
0.020264 1 0.978485
0.020264 1 0.978469
0.020264 1 0.978469
0.020264 1 0.978439
0.382925 1 0.975128
0.681346 1 0.972503
0.905882 0.997864 0.970306
1 0.995834 0.968322
