ShootInLogApp/LUTs/Subject.cube
TITLE "Generated by Resolve"
LUT_3D_SIZE 33
0 0 0
0 0 0
0 0 0
0.0627756 0 0
0.119814 0 0
0.15993 0 0
0.199039 0 0
0.245838 0 0
0.302541 0 0
0.368627 0 0
0.446952 0 0
0.526207 0 0
0.606806 0 0
0.687083 0 0
0.764508 0 0
0.837263 0 0
0.903151 0 0
0.956344 0 0
0.956344 0 0
0.956344 0 0
0.956344 0 0
0.956344 0 0
0.956344 0 0
0.956344 0 0
0.956344 0 0
0.956344 0 0
0.956344 0 0
0.956359 0 0
0.956344 0 0
0.956359 0 0
0.956344 0 0
0.956329 0 0
0.956329 0 0
0 0 0
0 0 0
0 0 0
0 0 0
0.076173 0 0
0.130694 0 0
0.177157 0 0
0.231708 0 0
0.291707 0 0
0.35729 0 0
0.435523 0 0
0.515984 0 0
0.597742 0 0
0.679179 0 0
0.757198 0 0
0.831266 0 0
0.898314 0 0
0.956344 0 0
0.956359 0 0
0.956344 0 0
0.956344 0 0
0.956344 0 0
0.956344 0 0
0.956344 0 0
0.956344 0 0
0.956344 0 0
0.956344 0 0
0.956344 0 0
0.956359 0 0
0.956359 0 0
0.956344 0 0
0.956344 0 0
0.956329 0 0
0 0 0
0 0 0
0 0 0
0 0 0
0.0244755 0 0
0.0911269 0 0
0.140841 0 0
0.195285 0 0
0.258686 0 0
0.330266 0 0
0.412604 0 0
0.499565 0 0
0.585382 0 0
0.669612 0 0
0.750134 0 0
0.825177 0 0
0.893141 0 0
0.952712 0 0
0.956359 0 0
0.956359 0 0
0.956359 0 0
0.956359 0 0
0.956359 0 0
0.956359 0 0
0.956359 0 0
0.956359 0 0
0.956359 0 0
0.956359 0 0
0.956359 0 0
0.956359 0 0
0.956359 0 0
0.956344 0 0
0.956344 0 0
0 0 0
0 0 0
0 0 0
0 0 0
0 0 0
0.0525063 0 0
0.110033 0 0
0.16849 0 0
0.235035 0 0
0.30898 0 0
0.391684 0 0
0.482841 0 0
0.570993 0 0
0.657588 0 0
0.740307 0 0
0.817243 0 0
0.886931 0 0
0.947997 0 0
0.956359 0 0
0.956359 0 0
0.956359 0 0
0.956359 0 0
0.956359 0 0
0.956359 0 0
0.956359 0 0
0.956359 0 0
0.956359 0 0
0.956374 0 0
0.956359 0 0
0.956359 0 0
0.956359 0 0
0.956359 0 0
0.956344 0 0
0 0 0
0 0 0
0 0 0
0 0 0
0 0 0
0.010605 0 0
0.0758831 0 0
0.138033 0 0
0.206851 0 0
0.282109 0 0
0.365133 0 0
0.458473 0 0
0.549157 0 0
0.637919 0 0
0.722988 0 0
0.802548 0 0
0.874449 0 0
0.937819 0 0
0.956359 0 0
0.956359 0 0
0.956359 0 0
0.956359 0 0
0.956359 0 0
0.956359 0 0
0.956374 0 0
0.956374 0 0
0.956359 0 0
0.956374 0 0
0.956374 0 0
0.956359 0 0
0.956359 0 0
0.956359 0 0
0.956359 0 0
0 0.0138857 0
0 0.0122988 0
0 0 0
0 0 0
0 0 0
0 0 0
0.0416114 0 0
0.110033 0 0
0.182055 0 0
0.258137 0 0
0.338704 0 0
0.4318 0 0
0.524804 0 0
0.615488 0 0
0.702449 0 0
0.783948 0 0
0.858213 0 0
0.923796 0 0
0.956359 0 0
0.956359 0 0
0.956359 0 0
0.956359 0 0
0.956374 0 0
0.956359 0 0
0.956359 0 0
0.956359 0 0
0.956359 0 0
0.956359 0 0
0.956359 0 0
0.956374 0 0
0.956359 0 0
0.956359 0 0
0.956359 0 0
0 0.0632029 0
0 0.0613413 0
0 0.0469825 0
0 0.0334325 0
0 0.0218204 0
0 0.0153506 0
0 0.0106203 0
0.0802777 0 0
0.162325 0 0
0.243076 0 0
0.326589 0 0
0.413138 0 0
0.501259 0 0
0.59295 0 0
0.681865 0 0
0.765454 0 0
0.841794 0 0
0.909651 0 0
0.956344 0 0
0.956344 0 0
0.956359 0 0
0.956359 0 0
0.956359 0 0
0.956344 0 0
0.956359 0 0
0.956344 0 0
0.956359 0 0
0.956359 0 0
0.956359 0 0
0.956359 0 0
0.956359 0 0
0.956359 0 0
0.956359 0 0
0 0.107271 0
0 0.105531 0
0 0.096849 0
0 0.0879377 0
0 0.078645 0
0 0.068986 0
0 0.0625315 0
0.0289158 0.0492256 0
0.119158 0.0324559 0
0.204135 0.0126497 0
0.291661 0 0
0.387198 0 0
0.480079 0 0
0.571511 0 0
0.66067 0 0
0.746227 0 0
0.82472 0 0
0.894789 0 0
0.955612 0 0
0.956359 0 0
0.956359 0 0
0.956359 0 0
0.956359 0 0
0.956359 0 0
0.956359 0 0
0.956359 0 0
0.956359 0 0
0.956344 0 0
0.956359 0 0
0.956359 0 0
0.956359 0 0
0.956359 0 0
0.956359 0 0
0 0.154665 0
0 0.152911 0
0 0.147539 0
0 0.139757 0
0 0.132265 0
0 0.123827 0
0 0.116457 0
0 0.107912 0
0.0674601 0.0919051 0
0.161563 0.0747082 0
0.252491 0.0531624 0
0.345129 0.0244297 0
0.440513 0 0
0.542931 0 0
0.638422 0 0
0.725734 0 0
0.806577 0 0
0.87892 0 0
0.942061 0 0
0.956359 0 0
0.956374 0 0
0.956359 0 0
0.956359 0 0
0.956359 0 0
0.956359 0 0
0.956359 0 0
0.956359 0 0
0.956359 0 0
0.956359 0 0
0.956359 0 0
0.956359 0 0
0.956359 0 0
0.956359 0 0
0 0.206302 0
0 0.204425 0
0 0.203082 0
0 0.1944 0
0 0.188251 0
0 0.180621 0
0 0.173526 0
0 0.16643 0
0.00221256 0.153063 0
0.108629 0.137407 0
0.207752 0.119585 0
0.304662 0.0965133 0
0.402426 0.0658427 0
0.500893 0.0257267 0
0.598245 0 0
0.698344 0 0
0.786038 0 0
0.861616 0 0
0.927062 0 0
0.956359 0 0
0.956359 0 0
0.956359 0 0
0.956359 0 0
0.956359 0 0
0.956359 0 0
0.956359 0 0
0.956359 0 0
0.956374 0 0
0.956359 0 0
0.956374 0 0
0.956359 0 0
0.956374 0 0
0.956359 0 0
0 0.26244 0
0 0.260441 0
0 0.258701 0
0 0.252583 0
0 0.247379 0
0 0.240589 0
0 0.233783 0
0 0.227131 0
0 0.21912 0
0.0401312 0.202152 0
0.152804 0.186038 0
0.257572 0.167376 0
0.35993 0.142687 0
0.461723 0.110842 0
0.562066 0.0701457 0
0.658351 0.019913 0
0.748012 0 0
0.835782 0 0
0.909239 0 0
0.956359 0 0
0.956359 0 0
0.956374 0 0
0.956359 0 0
0.956359 0 0
0.956374 0 0
0.956374 0 0
0.956374 0 0
0.956374 0 0
0.956359 0 0
0.956359 0 0
0.956359 0 0
0.956359 0 0
0.956374 0 0
0 0.323217 0
0 0.32108 0
0 0.319219 0
0 0.31458 0
0 0.310338 0
0 0.30425 0
0 0.297612 0
0 0.291081 0
0 0.284291 0
0 0.273762 0
0.081178 0.254658 0
0.200397 0.23769 0
0.310735 0.218112 0
0.417548 0.192462 0
0.52192 0.15967 0
0.622278 0.119707 0
0.716381 0.0727398 0
0.801511 0.019379 0
0.87602 0 0
0.941146 0 0
0.952346 0 0
0.955718 0 0
0.956359 0 0
0.956359 0 0
0.956359 0 0
0.956374 0 0
0.956359 0 0
0.956359 0 0
0.956374 0 0
0.956374 0 0
0.956359 0 0
0.956359 0 0
0.956359 0 0
0 0.388083 0
0 0.385824 0
0 0.383963 0
0 0.380133 0
0 0.376669 0
0 0.371252 0
0 0.36463 0
0 0.358282 0
0 0.351659 0
0 0.344381 0
0 0.32813 0
0.125826 0.310048 0
0.251331 0.292485 0
0.366445 0.272251 0
0.476585 0.245548 0
0.58172 0.212802 0
0.680293 0.17435 0
0.770382 0.131304 0
0.850584 0.0852522 0
0.919036 0.0378729 0
0.941558 0.00192264 0
0.941878 0 0
0.942794 0 0
0.945113 0 0
0.951446 0 0
0.952926 0 0
0.954757 0 0
0.955825 0 0
0.955932 0 0
0.956039 0 0
0.956146 0 0
0.956146 0 0
0.956252 0 0
0 0.456123 0
0 0.45391 0
0 0.451804 0
0 0.448798 0
0 0.445792 0
0 0.441077 0
0 0.434653 0
0 0.428489 0
0 0.421912 0
0 0.414816 0
0 0.406928 0
0.0196689 0.386435 0
0.174716 0.367987 0
0.30547 0.350011 0
0.424323 0.329229 0
0.535729 0.302434 0
0.639612 0.270207 0
0.734859 0.233967 0
0.819745 0.195392 0
0.893431 0.156207 0
0.938476 0.121782 0
0.939483 0.0966354 0
0.940246 0.0729076 0
0.940841 0.050782 0
0.941115 0.0310826 0
0.941344 0.0144808 0
0.94168 0.00189212 0
0.941543 0 0
0.941756 0 0
0.941787 0 0
0.941833 0 0
0.941833 0 0
0.941848 0 0
0 0.526268 0
0 0.524056 0
0 0.521859 0
0 0.519265 0
0 0.516533 0
0 0.512642 0
0 0.506401 0
0 0.50016 0
0 0.493767 0
0 0.486854 0
0 0.479271 0
0 0.470253 0
0.0686351 0.446662 0
0.227649 0.427863 0
0.362341 0.409384 0
0.482856 0.388388 0
0.593286 0.361944 0
0.694316 0.331044 0
0.784558 0.297749 0
0.863371 0.263554 0
0.930297 0.230747 0
0.934798 0.210498 0
0.935637 0.192264 0
0.9364 0.17586 0
0.93695 0.161135 0
0.937469 0.148287 0
0.937911 0.137179 0
0.938308 0.127321 0
0.93846 0.121294 0
0.938598 0.118593 0
0.938735 0.115892 0
0.938872 0.113024 0
0.938994 0.110002 0
0 0.596689 0
0 0.594385 0
0 0.592203 0
0 0.59028 0
0 0.587198 0
0 0.583978 0
0 0.578195 0
0 0.572152 0
0 0.565728 0
0 0.55903 0
0 0.55169 0
0 0.543832 0
0 0.531838 0
0.124224 0.507103 0
0.284733 0.488075 0
0.420905 0.469459 0
0.540551 0.448737 0
0.648249 0.422889 0
0.744427 0.393957 0
0.828565 0.364004 0
0.900496 0.334401 0
0.929488 0.312932 0
0.930358 0.298024 0
0.931105 0.284398 0
0.931777 0.272465 0
0.932265 0.262089 0
0.932799 0.252872 0
0.933165 0.244755 0
0.933471 0.238666 0
0.933669 0.235691 0
0.933745 0.232883 0
0.933959 0.23006 0
0.934035 0.2271 0
0 0.665431 0
0 0.66305 0
0 0.660899 0
0 0.658763 0
0 0.656107 0
0 0.653452 0
0 0.648402 0
0 0.642466 0
0 0.636271 0
0 0.629816 0
0 0.622812 0
0 0.615305 0
0 0.607034 0
0 0.587427 0
0.185748 0.566278 0
0.344991 0.547066 0
0.479683 0.528557 0
0.596155 0.508415 0
0.699001 0.483879 0
0.788968 0.457359 0
0.86627 0.430747 0
0.923613 0.406744 0
0.924483 0.393759 0
0.925261 0.382406 0
0.925948 0.372015 0
0.92639 0.362951 0
0.926925 0.355077 0
0.927398 0.347951 0
0.92784 0.341741 0
0.927977 0.338689 0
0.9281 0.335775 0
0.928359 0.33286 0
0.928496 0.329946 0
0 0.730678 0
0 0.72845 0
0 0.726329 0
0 0.724086 0
0 0.721492 0
0 0.719387 0
0 0.715023 0
0 0.7093 0
0 0.703334 0
0 0.697246 0
0 0.690608 0
0 0.683452 0
0 0.675776 0
0 0.66746 0
0.049836 0.643153 0
0.251759 0.622553 0
0.406363 0.603326 0
0.536904 0.585351 0
0.648219 0.56582 0
0.744625 0.542947 0
0.827695 0.51902 0
0.897978 0.495689 0
0.918227 0.481056 0
0.918929 0.470787 0
0.919676 0.461784 0
0.920226 0.453666 0
0.920806 0.446601 0
0.921202 0.440146 0
0.921691 0.434241 0
0.92192 0.430732 0
0.922087 0.427939 0
0.922271 0.424994 0
0.922469 0.421912 0
0 0.79144 0
0 0.789197 0
0 0.787091 0
0 0.784985 0
0 0.782269 0
0 0.780529 0
0 0.776806 0
0 0.771481 0
0 0.765896 0
0 0.760067 0
0 0.753719 0
0 0.747005 0
0 0.739788 0
0 0.731929 0
0 0.722484 0
0.134173 0.694881 0
0.319707 0.674601 0
0.467048 0.65565 0
0.591226 0.638285 0
0.69575 0.619821 0
0.785046 0.598886 0
0.861006 0.577737 0
0.9122 0.559625 0
0.912871 0.5505 0
0.913466 0.542214 0
0.914137 0.53489 0
0.914611 0.52842 0
0.915038 0.522591 0
0.915419 0.517174 0
0.915709 0.513191 0
0.915908 0.510338 0
0.916259 0.507332 0
0.916472 0.504326 0
0 0.847089 0
0 0.844953 0
0 0.842939 0
0 0.840803 0
0 0.837919 0
0 0.836408 0
0 0.833387 0
0 0.828351 0
0 0.822934 0
0 0.817441 0
0 0.811566 0
0 0.805325 0
0 0.798581 0
0 0.791196 0
0 0.783383 0
0 0.763455 0
0.218051 0.741543 0
0.387915 0.721843 0
0.525979 0.703563 0
0.642008 0.687099 0
0.73901 0.670192 0
0.821012 0.65153 0
0.890166 0.632914 0
0.907439 0.622034 0
0.908019 0.614282 0
0.908507 0.607492 0
0.908965 0.601389 0
0.909377 0.595834 0
0.909758 0.590692 0
0.910063 0.586526 0
0.910262 0.583749 0
0.910613 0.580789 0
0.910842 0.577874 0
0 0.897231 0
0 0.895018 0
0 0.89305 0
0 0.891096 0
0 0.88809 0
0 0.886534 0
0 0.883986 0
0 0.87953 0
0 0.874556 0
0 0.869444 0
0 0.863966 0
0 0.858091 0
0 0.851743 0
0 0.844953 0
0 0.837659 0
0 0.829862 0
0.0954147 0.803861 0
0.300053 0.783261 0
0.45449 0.76466 0
0.582254 0.7476 0
0.689647 0.732479 0
0.778836 0.717144 0
0.853559 0.700877 0
0.902937 0.686793 0
0.903426 0.679362 0
0.903853 0.672755 0
0.90428 0.666773 0
0.904646 0.661494 0
0.904982 0.656611 0
0.905272 0.652308 0
0.90547 0.649378 0
0.905669 0.646448 0
0.905882 0.643519 0
0 0.940002 0
0 0.938155 0
0 0.936416 0
0 0.934691 0
0 0.93196 0
0 0.93048 0
0 0.928496 0
0 0.924804 0
0 0.92047 0
0 0.915633 0
0 0.910689 0
0 0.905196 0
0 0.899321 0
0 0.89305 0
0 0.886137 0
0 0.878889 0
0 0.861189 0
0.203143 0.839979 0
0.378714 0.821073 0
0.519112 0.803479 0
0.636103 0.788251 0
0.734478 0.774868 0
0.815747 0.761532 0
0.883436 0.747173 0
0.899901 0.738231 0
0.900282 0.731777 0
0.900618 0.72604 0
0.900938 0.720729 0
0.901213 0.715999 0
0.901473 0.711406 0
0.901656 0.7084 0
0.901823 0.705562 0
0.902007 0.702754 0
0 0.946059 0
0 0.946059 0
0 0.946059 0
0 0.946059 0
0 0.946059 0
0 0.946059 0
0 0.946059 0
0 0.946059 0
0 0.946059 0
0 0.946059 0
0 0.946059 0
0 0.944823 0
0 0.939879 0
0 0.934447 0
0 0.928634 0
0 0.922316 0
0 0.915129 0
0.0942702 0.891371 0
0.299565 0.872801 0
0.453788 0.855467 0
0.580819 0.839765 0
0.687419 0.826093 0
0.776577 0.814633 0
0.850217 0.803082 0
0.897536 0.792187 0
0.897841 0.78558 0
0.897948 0.77969 0
0.898207 0.774517 0
0.898436 0.769802 0
0.89865 0.765362 0
0.898817 0.762112 0
0.898939 0.759441 0
0.899077 0.756649 0
0 0.946059 0
0 0.946059 0
0 0.946059 0
0 0.946059 0
0 0.946059 0
0 0.946059 0
0 0.946059 0
0 0.946059 0
0 0.946059 0
0 0.946059 0
0 0.946059 0
0 0.946059 0
0 0.946059 0
0 0.946059 0
0 0.946059 0
0 0.946059 0
0 0.946059 0
0 0.935027 0
0.217441 0.919173 0
0.387884 0.902434 0
0.52491 0.886931 0
0.639536 0.87303 0
0.735714 0.861479 0
0.816052 0.851759 0
0.882048 0.841794 0
0.895933 0.834394 0
0.896162 0.828611 0
0.896361 0.823148 0
0.896544 0.818463 0
0.896574 0.814176 0
0.896727 0.810788 0
0.896834 0.808164 0
0.896941 0.805554 0
0 0.946075 0
0 0.946059 0
0 0.946059 0
0 0.946059 0
0 0.946059 0
0 0.946059 0
0 0.946059 0
0 0.946059 0
0 0.946059 0
0 0.946059 0
0 0.946059 0
0 0.946059 0
0 0.946059 0
0 0.946059 0
0 0.946059 0
0 0.946059 0
0 0.946059 0
0 0.945815 0
0.13904 0.931426 0
0.327993 0.923674 0
0.47277 0.917388 0
0.59263 0.912764 0
0.69485 0.903914 0
0.780926 0.894072 0
0.852583 0.885649 0
0.894728 0.878126 0
0.894926 0.872251 0
0.894942 0.867048 0
0.895094 0.862196 0
0.895247 0.858015 0
0.895384 0.854475 0
0.89546 0.852064 0
0.895552 0.8495 0
0 0.946075 0
0 0.946075 0
0 0.946075 0
0 0.946059 0
0 0.946075 0
0 0.946059 0
0 0.946059 0
0 0.946059 0
0 0.946075 0
0 0.946059 0
0 0.946075 0
0 0.946059 0
0 0.946059 0
0 0.946059 0
0 0.946059 0
0 0.946059 0
0 0.946075 0
0 0.946075 0
0.0530709 0.934295 0
0.272343 0.926101 0
0.428672 0.919295 0
0.555062 0.914061 0
0.660883 0.910399 0
0.749691 0.907897 0
0.824308 0.906401 0
0.88632 0.905715 0
0.89395 0.905623 0
0.89398 0.905303 0
0.894133 0.900938 0
0.89427 0.896742 0
0.894224 0.893233 0
0.894286 0.890883 0
0.894362 0.888701 0
0 0.946075 0
0 0.946075 0
0 0.946075 0
0 0.946075 0
0 0.946075 0
0 0.946059 0
0 0.946075 0
0 0.946059 0
0 0.946075 0
0 0.946075 0
0 0.946059 0
0 0.946059 0
0 0.946075 0
0 0.946059 0
0 0.946059 0
0 0.946059 0
0 0.946075 0
0 0.946059 0
0 0.937057 0
0.214771 0.928481 0
0.384863 0.921187 0
0.518486 0.915557 0
0.629053 0.911482 0
0.721538 0.908553 0
0.798932 0.906828 0
0.86334 0.905989 0
0.893965 0.905623 0
0.893965 0.905623 0
0.893965 0.905623 0
0.893965 0.905623 0
0.893965 0.905623 0
0.89395 0.905623 0
0.89395 0.905608 0
0 0.946075 0
0 0.946059 0
0 0.946059 0
0 0.946059 0
0 0.946059 0
0 0.946059 0
0 0.946059 0
0 0.946059 0
0 0.946059 0
