ShootInLogApp/LUTs/Subject.cube
TITLE "Generated by Resolve"
LUT_3D_SIZE 9
0 0 0
0.119814 0 0
0.302541 0 0
0.606806 0 0
0.903151 0 0
0.956344 0 0
0.956344 0 0
0.956344 0 0
0.956329 0 0
0 0 0
0 0 0
0.206851 0 0
0.549157 0 0
0.874449 0 0
0.956359 0 0
0.956374 0 0
0.956374 0 0
0.956359 0 0
0 0.154665 0
0 0.132265 0
0.0674601 0.0919051 0
0.440513 0 0
0.806577 0 0
0.956374 0 0
0.956359 0 0
0.956359 0 0
0.956359 0 0
0 0.388083 0
0 0.376669 0
0 0.351659 0
0.251331 0.292485 0
0.680293 0.17435 0
0.941558 0.00192264 0
0.951446 0 0
0.955932 0 0
0.956252 0 0
0 0.665431 0
0 0.656107 0
0 0.636271 0
0 0.607034 0
0.479683 0.528557 0
0.86627 0.430747 0
0.925948 0.372015 0
0.92784 0.341741 0
0.928496 0.329946 0
0 0.897231 0
0 0.88809 0
0 0.874556 0
0 0.851743 0
0.0954147 0.803861 0
0.689647 0.732479 0
0.903426 0.679362 0
0.904982 0.656611 0
0.905882 0.643519 0
0 0.946075 0
0 0.946059 0
0 0.946059 0
0 0.946059 0
0 0.946059 0
0.47277 0.917388 0
0.852583 0.885649 0
0.895094 0.862196 0
0.895552 0.8495 0
0 0.946075 0
0 0.946059 0
0 0.946059 0
0 0.946059 0
0 0.946059 0
0.295537 0.925048 0
0.751675 0.907851 0
0.89395 0.905608 0
0.89395 0.905623 0
0 0.946075 0
0 0.946075 0
0 0.946075 0
0 0.946075 0
0 0.946075 0
0.115511 0.932357 0
0.672465 0.910063 0
0.893965 0.905623 0
0.89395 0.905623 0
0 0 0.00393683
0.0679179 0 0
0.277577 0 0
0.594598 0 0
0.897658 0 0
0.956374 0 0
0.956374 0 0
0.956359 0 0
0.956359 0 0
0 0 0
0 0 0
0.18764 0 0
0.54287 0 0
0.872007 0 0
0.95639 0 0
0.956374 0 0
0.956374 0 0
0.956374 0 0
0 0.126925 0
0 0.105516 0
0.0361181 0.0648966 0
0.445548 0 0
0.805325 0 0
0.956374 0 0
0.956374 0 0
0.956374 0 0
0.956359 0 0
0 0.377111 0
0 0.366644 0
0 0.342412 0
0.240421 0.282826 0
0.678416 0.159991 0
0.941756 0 0
0.954009 0 0
0.956374 0 0
0.956374 0 0
0 0.659159 0
0 0.649943 0
0 0.630976 0
0 0.602197 0
0.474723 0.524025 0
0.864897 0.423758 0
0.926543 0.362799 0
0.928466 0.330892 0
0.929137 0.318486 0
0 0.892287 0
0 0.883482 0
0 0.871504 0
0 0.848356 0
0.0768292 0.800748 0
0.684337 0.727596 0
0.903883 0.672343 0
0.905531 0.648692 0
0.906493 0.634897 0
0 0.946075 0
0 0.946075 0
0 0.946075 0
0 0.946059 0
0 0.946059 0
0.458854 0.917983 0
0.847425 0.881056 0
0.895308 0.85658 0
0.895628 0.843076 0
0 0.946075 0
0 0.946059 0
0 0.946059 0
0 0.946059 0
0 0.946059 0
0.271611 0.926116 0
0.742061 0.908064 0
0.893965 0.905623 0
0.89395 0.905608 0
0 0.94609 0
0 0.946075 0
0 0.946075 0
0 0.946075 0
0 0.946075 0
0.0740368 0.933669 0
0.658946 0.91046 0
0.893965 0.905623 0
0.89395 0.905623 0
0 0 0.271611
0 0 0.23946
0.242542 0 0.190082
0.57557 0 0.116045
0.887526 0 0
0.956466 0 0
0.956069 0 0
0.956146 0 0
0.956146 0 0
0 0 0.179461
0 0 0.171908
0.149996 0 0.13196
0.528328 0 0.0534066
0.863493 0 0
0.956268 0 0
0.956374 0 0
0.956374 0 0
0.956374 0 0
0 0.0856489 0.0640879
0 0.0603037 0.0526436
0 0.0198978 0.0339055
0.437797 0 0
0.799191 0 0
0.956374 0 0
0.956359 0 0
0.956374 0 0
0.956359 0 0
0 0.356603 0
0 0.346929 0
0 0.32401 0
0.217334 0.262501 0
0.673472 0.128603 0
0.943053 0 0
0.956359 0 0
0.956374 0 0
0.956359 0 0
0 0.64564 0
0 0.636805 0
0 0.618891 0
0 0.589014 0
0.457557 0.508415 0
0.859098 0.403128 0
0.928069 0.337026 0
0.930083 0.302693 0
0.930816 0.28954 0
0 0.883101 0
0 0.874434 0
0 0.86154 0
0 0.838682 0
0.0247349 0.793271 0
0.67303 0.716976 0
0.904845 0.658579 0
0.906584 0.633799 0
0.907637 0.61941 0
0 0.946075 0
0 0.946075 0
0 0.946059 0
0 0.946059 0
0 0.946059 0
0.435904 0.918288 0
0.83798 0.871702 0
0.895674 0.846281 0
0.89601 0.832303 0
0 0.946075 0
0 0.946059 0
0 0.946059 0
0 0.946059 0
0 0.946059 0
0.23624 0.927535 0
0.727825 0.9084 0
0.89395 0.905623 0
0.89395 0.905608 0
0 0.946075 0
0 0.946075 0
0 0.946075 0
0 0.946075 0
0 0.946075 0
0.0119326 0.935409 0
0.640696 0.911116 0
0.893965 0.905623 0
0.893965 0.905623 0
0 0 0.60351
0 0 0.575982
0.0943923 0 0.541405
0.533974 0 0.520974
0.872694 0 0.431144
0.964401 0 0.373602
0.964065 0 0.352865
0.963867 0 0.344625
0.963806 0 0.340383
0 0 0.530358
0 0 0.525994
0 0 0.503044
0.484672 0 0.486625
0.849592 0 0.391363
0.963638 0 0.324208
0.963272 0 0.301732
0.963149 0 0.2925
0.963073 0 0.286763
0 0 0.44715
0 0 0.443153
0 0 0.427924
0.388922 0 0.405447
0.786252 0 0.304051
0.961852 0 0.21117
0.961303 0 0.181765
0.961135 0 0.170657
0.961074 0 0.166751
0 0.30779 0.315358
0 0.297093 0.308568
0 0.273762 0.290715
0.14789 0.218341 0.251575
0.665812 0.0654002 0.147601
0.955978 0 0.0475929
0.958114 0 0.00505074
0.95761 0 0
0.95758 0 0
0 0.618006 0.0766003
0 0.609796 0.0569314
0 0.593805 0.0235599
0 0.567941 0
0.435904 0.489296 0
0.852964 0.377813 0
0.929946 0.305745 0
0.931945 0.268467 0
0.932662 0.25417 0
0 0.869459 0
0 0.861418 0
0 0.848737 0
0 0.826719 0
0 0.785 0
0.659052 0.704067 0
0.906065 0.641032 0
0.907973 0.614832 0
0.909102 0.599451 0
0 0.946075 0
0 0.946075 0
0 0.946075 0
0 0.946059 0
0 0.946059 0
0.40737 0.909804 0
0.825605 0.859983 0
0.89601 0.832639 0
0.896574 0.817685 0
0 0.946059 0
0 0.946059 0
0 0.946059 0
0 0.946059 0
0 0.946059 0
0.184833 0.92961 0
0.707774 0.909056 0
0.89395 0.905623 0
0.89395 0.905608 0
0 0.946075 0
0 0.946075 0
0 0.946075 0
0 0.946075 0
0 0.946075 0
0 0.937987 0
0.615549 0.91191 0
0.890837 0.905669 0
0.893965 0.905623 0
0 0 0.891783
0 0 0.87393
0 0 0.852201
0.384833 0 0.854719
0.83798 0 0.842084
0.969726 0 0.805936
0.969589 0 0.79649
0.969573 0 0.792752
0.969558 0 0.791394
0 0 0.848859
0 0 0.84686
0 0 0.833387
0.315404 0 0.836088
0.811322 0 0.822705
0.969451 0 0.7823
0.969299 0 0.771435
0.969268 0 0.766308
0.969253 0 0.762539
0 0 0.787732
0 0 0.788647
0 0 0.777111
0.190356 0 0.77586
0.74342 0 0.761013
0.968612 0 0.704448
0.968444 0 0.690135
0.968307 0 0.683925
0.968292 0 0.680964
0 0.13051 0.71426
0 0.110399 0.713817
0 0.0720989 0.704341
0 0.00299077 0.686992
0.646021 0 0.680629
0.9673 0 0.597879
0.967041 0 0.573953
0.966857 0 0.561181
0.966812 0 0.553704
0 0.560754 0.590768
0 0.551324 0.582147
0 0.53373 0.567147
0 0.505943 0.542229
0.351141 0.432761 0.483772
0.836866 0.307256 0.389853
0.931853 0.225193 0.345266
0.934462 0.181918 0.328222
0.935256 0.166293 0.316945
0 0.823758 0.415824
0 0.816648 0.395605
0 0.805142 0.369528
0 0.785794 0.325704
0 0.759289 0.266056
0.621546 0.67277 0.168566
0.901244 0.603586 0.0906691
0.904173 0.576211 0.0617533
0.905837 0.560265 0.041825
0 0.932494 0.251987
0 0.933455 0.212894
0 0.934722 0.167819
0 0.936645 0.0890974
0 0.939345 0
0.359594 0.893385 0
0.806027 0.841611 0
0.896696 0.811399 0
0.897368 0.796017 0
0 0.936095 0.113222
0 0.937682 0.0489509
0 0.939559 0
0 0.944823 0
0 0.946059 0
0.10164 0.932738 0
0.679042 0.909865 0
0.89395 0.905608 0
0.89395 0.905608 0
0 0.93991 0
0 0.944091 0
0 0.946075 0
0 0.946075 0
0 0.946059 0
0 0.946059 0
0.581338 0.913115 0
0.873259 0.905867 0
0.893965 0.905623 0
0 0 1
0 0 1
0 0 1
0.205676 0 1
0.75375 0 1
0.958831 0 1
0.959365 0 1
0.959548 0 1
0.959487 0 1
0 0 1
0 0 1
0 0 1
0.102892 0 1
0.719692 0 1
0.960021 0 1
0.960678 0 1
0.960983 0 1
0.961135 0 1
0 0 1
0 0 1
0 0 1
0 0 1
0.63154 0 1
0.965011 0 1
0.965942 0 1
0.966323 0 1
0.966461 0 1
0 0 0.981399
0 0 0.974807
0 0 0.961273
0 0 0.952087
0.503548 0 0.969726
0.93611 0 0.963088
0.970977 0 0.949462
0.971115 0 0.94168
0.971115 0 0.937072
0 0.437079 0.90692
0 0.422889 0.904173
0 0.398077 0.897993
0 0.358602 0.886702
0.20444 0.280888 0.856672
0.798489 0.18674 0.8318
0.940688 0.0743572 0.803021
0.943877 0.00869764 0.794919
0.944869 0 0.787579
0 0.770932 0.823285
0 0.762722 0.813947
0 0.749279 0.802289
0 0.727764 0.780697
0 0.698024 0.756054
0.544701 0.618494 0.682277
0.905455 0.536309 0.617594
0.908583 0.507424 0.602396
0.910201 0.491157 0.589456
0 0.920775 0.735454
0 0.921218 0.715328
0 0.921675 0.693599
0 0.91313 0.655177
0 0.895659 0.610483
0.250797 0.851759 0.508934
0.748028 0.79353 0.437064
0.881514 0.758816 0.407477
0.883024 0.743694 0.391592
0 0.922179 0.670375
0 0.922805 0.640894
0 0.923598 0.611811
0 0.924697 0.559792
0 0.926253 0.496849
0 0.920638 0.410437
0.605707 0.901839 0.292439
0.875135 0.895994 0.253864
0.87599 0.896468 0.227771
0 0.923796 0.60351
0 0.92459 0.565682
0 0.925551 0.528557
0 0.927001 0.469627
0 0.928801 0.39501
0 0.931029 0.309636
0.507286 0.907301 0.176364
0.825467 0.898695 0.120806
0.881254 0.898711 0.0773632
0 0 1
0 0 1
0 0 1
0.123522 0 1
0.72343 0 1
0.958846 0 1
0.958862 0 1
0.958846 0 1
0.958846 0 1
0 0 1
0 0 1
0 0 1
0.00363165 0 1
0.684596 0 1
0.958862 0 1
0.958862 0 1
0.958862 0 1
0.958846 0 1
0 0 1
0 0 1
0 0 1
0 0 1
0.576074 0 1
0.958862 0 1
0.958862 0 1
0.958862 0 1
0.958846 0 1
0 0 1
0 0 1
0 0 1
0 0 1
0.410193 0 1
0.890883 0 1
0.958862 0 1
0.958862 0 1
0.958862 0 1
0 0.341527 1
0 0.321492 1
0 0.287785 1
0 0.232059 1
0.0391394 0.134508 1
0.729671 0.00505074 1
0.943252 0 1
0.95848 0 1
0.958267 0 1
0 0.707393 1
0 0.695979 1
0 0.678569 0.999786
0 0.65005 0.992493
0 0.610574 0.983795
0.472862 0.535592 0.94226
0.878233 0.472877 0.922332
0.910124 0.43975 0.909697
0.912398 0.42089 0.901732
0 0.90074 0.966705
0 0.894301 0.960464
0 0.884962 0.953353
0 0.86952 0.939025
0 0.848447 0.921553
0.143999 0.807233 0.86659
0.686839 0.746166 0.821897
0.887037 0.703487 0.789197
0.888655 0.688563 0.777005
0 0.914641 0.937758
0 0.915663 0.926802
0 0.916716 0.915694
0 0.917525 0.891875
0 0.918273 0.861753
0 0.918944 0.825803
0.523049 0.899931 0.713268
0.829404 0.869535 0.668147
0.870359 0.85301 0.654963
0 0.916915 0.910323
0 0.91751 0.89276
0 0.917983 0.875059
0 0.918593 0.845823
0 0.919326 0.807477
0 0.920226 0.763149
0.414984 0.903868 0.649805
0.760647 0.894286 0.589761
0.868254 0.892271 0.564111
0 0 1
0 0 1
0 0 1
0.100114 0 1
0.713603 0 1
0.958846 0 1
0.958846 0 1
0.958846 0 1
0.958831 0 1
0 0 1
0 0 1
0 0 1
0 0 1
0.673838 0 1
0.958862 0 1
0.958862 0 1
0.958862 0 1
0.958846 0 1
0 0 1
0 0 1
0 0 1
0 0 1
0.559731 0 1
0.957351 0 1
0.958862 0 1
0.958846 0 1
0.958846 0 1
0 0 1
0 0 1
0 0 1
0 0 1
0.380743 0 1
0.876219 0 1
0.958862 0 1
0.958846 0 1
0.958846 0 1
0 0.312413 1
0 0.289631 1
0 0.251957 1
0 0.186999 1
0 0.0743572 1
0.70779 0 1
0.958846 0 1
0.958846 0 1
0.958846 0 1
0 0.687968 1
0 0.674098 1
0 0.653681 1
0 0.618952 1
0 0.572396 1
0.429984 0.494179 0.99382
0.848524 0.426886 0.989395
0.906355 0.3841 0.992004
0.908476 0.358267 0.994492
0 0.878584 1
0 0.869474 1
0 0.858 1
0 0.837934 1
0 0.810834 1
0.0514076 0.766751 0.98761
0.653605 0.702708 0.970397
0.880964 0.663371 0.965667
0.88333 0.646342 0.959823
0 0.904723 1
0 0.904723 1
0 0.904723 1
0 0.904707 1
0 0.905638 1
0 0.907652 0.991241
0.476387 0.869337 0.93312
0.787076 0.834791 0.919615
0.872801 0.81416 0.907408
0 0.904738 1
0 0.904738 1
0 0.905257 1
0 0.906889 0.995651
0 0.908919 0.983352
0 0.911131 0.967437
0.350454 0.902205 0.902373
0.707515 0.893614 0.86421
0.862394 0.891508 0.835843
0 0 1
0 0 1
0 0 1
0.0895247 0 1
0.708339 0 1
0.958846 0 1
0.958862 0 1
0.958846 0 1
0.958846 0 1
0 0 1
0 0 1
0 0 1
0 0 1
0.668635 0 1
0.958862 0 1
0.958862 0 1
0.958862 0 1
0.958846 0 1
0 0 1
0 0 1
0 0 1
0 0 1
0.554665 0 1
0.954742 0 1
0.958862 0 1
0.958846 0 1
0.958846 0 1
0 0 1
0 0 1
0 0 1
0 0 1
0.374334 0 1
0.871946 0 1
0.958862 0 1
0.958862 0 1
0.958862 0 1
0 0.307317 1
0 0.283467 1
0 0.24538 1
0 0.179644 1
0 0.0662089 1
0.701976 0 1
0.958877 0 1
0.958862 0 1
0.958877 0 1
0 0.684245 1
0 0.669657 1
0 0.648905 1
0 0.613214 1
0 0.564752 1
0.421439 0.485588 0.994736
0.841596 0.417731 0.990555
0.907362 0.372168 0.993179
0.909804 0.341726 0.996109
0 0.875898 1
0 0.866514 1
0 0.853986 1
0 0.832364 1
0 0.803403 1
0.0328222 0.757565 0.989075
0.644633 0.693065 0.971222
0.88159 0.652827 0.969543
0.883528 0.631464 0.970779
0 0.904723 1
0 0.904723 1
0 0.904723 1
0 0.904723 1
0 0.904723 1
0 0.899428 1
0.4607 0.854276 0.963973
0.775876 0.816571 0.963928
0.869429 0.794903 0.965103
0 0.904753 1
0 0.904738 1
0 0.904753 1
0 0.904738 1
0 0.904738 1
0 0.904738 1
0.308598 0.898238 0.968338
0.680537 0.890532 0.959747
0.850477 0.887999 0.962875
