ShootInLogApp/LUTs/Subject.cube
TITLE "Generated by Resolve"
LUT_3D_SIZE 5
0 0 0
0.302541 0 0
0.903151 0 0
0.956344 0 0
0.956329 0 0
0 0.154665 0
0.0674601 0.0919051 0
0.806577 0 0
0.956359 0 0
0.956359 0 0
0 0.665431 0
0 0.636271 0
0.479683 0.528557 0
0.925948 0.372015 0
0.928496 0.329946 0
0 0.946075 0
0 0.946059 0
0 0.946059 0
0.852583 0.885649 0
0.895552 0.8495 0
0 0.946075 0
0 0.946075 0
0 0.946075 0
0.672465 0.910063 0
0.89395 0.905623 0
0 0 0.271611
0.242542 0 0.190082
0.887526 0 0
0.956069 0 0
0.956146 0 0
0 0.0856489 0.0640879
0 0.0198978 0.0339055
0.799191 0 0
0.956359 0 0
0.956359 0 0
0 0.64564 0
0 0.618891 0
0.457557 0.508415 0
0.928069 0.337026 0
0.930816 0.28954 0
0 0.946075 0
0 0.946059 0
0 0.946059 0
0.83798 0.871702 0
0.89601 0.832303 0
0 0.946075 0
0 0.946075 0
0 0.946075 0
0.640696 0.911116 0
0.893965 0.905623 0
0 0 0.891783
0 0 0.852201
0.83798 0 0.842084
0.969589 0 0.79649
0.969558 0 0.791394
0 0 0.787732
0 0 0.777111
0.74342 0 0.761013
0.968444 0 0.690135
0.968292 0 0.680964
0 0.560754 0.590768
0 0.53373 0.567147
0.351141 0.432761 0.483772
0.931853 0.225193 0.345266
0.935256 0.166293 0.316945
0 0.932494 0.251987
0 0.934722 0.167819
0 0.939345 0
0.806027 0.841611 0
0.897368 0.796017 0
0 0.93991 0
0 0.946075 0
0 0.946059 0
0.581338 0.913115 0
0.893965 0.905623 0
0 0 1
0 0 1
0.72343 0 1
0.958862 0 1
0.958846 0 1
0 0 1
0 0 1
0.576074 0 1
0.958862 0 1
0.958846 0 1
0 0.341527 1
0 0.287785 1
0.0391394 0.134508 1
0.943252 0 1
0.958267 0 1
0 0.90074 0.966705
0 0.884962 0.953353
0 0.848447 0.921553
0.686839 0.746166 0.821897
0.888655 0.688563 0.777005
0 0.916915 0.910323
0 0.917983 0.875059
0 0.919326 0.807477
0.414984 0.903868 0.649805
0.868254 0.892271 0.564111
0 0 1
0 0 1
0.708339 0 1
0.958862 0 1
0.958846 0 1
0 0 1
0 0 1
0.554665 0 1
0.958862 0 1
0.958846 0 1
0 0.307317 1
0 0.24538 1
0 0.0662089 1
0.958877 0 1
0.958877 0 1
0 0.875898 1
0 0.853986 1
0 0.803403 1
0.644633 0.693065 0.971222
0.883528 0.631464 0.970779
0 0.904753 1
0 0.904753 1
0 0.904738 1
0.308598 0.898238 0.968338
0.850477 0.887999 0.962875
